material/.icons/material/inbox-multiple.svg

<svg xmlns="http://www.w3.org/2000/svg" viewBox="0 0 24 24"><path d="M19 8V5H5v3h4a3 3 0 003 3 3 3 0 003-3h4m0-5a2 2 0 012 2v7a2 2 0 01-2 2H5a2 2 0 01-2-2V5a2 2 0 012-2h14M3 15h6a3 3 0 003 3 3 3 0 003-3h6v4a2 2 0 01-2 2H5a2 2 0 01-2-2v-4z"/></svg>

<?xml version="1.0" encoding="UTF-8"?><!DOCTYPE svg PUBLIC "-//W3C//DTD SVG 1.1//EN" "http://www.w3.org/Graphics/SVG/1.1/DTD/svg11.dtd"><svg xmlns="http://www.w3.org/2000/svg" xmlns:xlink="http://www.w3.org/1999/xlink" version="1.1" id="mdi-inbox-multiple" width="24" height="24" viewBox="0 0 24 24"><path d="M19,8V5H5V8H9A3,3 0 0,0 12,11A3,3 0 0,0 15,8H19M19,3A2,2 0 0,1 21,5V12A2,2 0 0,1 19,14H5A2,2 0 0,1 3,12V5A2,2 0 0,1 5,3H19M3,15H9A3,3 0 0,0 12,18A3,3 0 0,0 15,15H21V19A2,2 0 0,1 19,21H5A2,2 0 0,1 3,19V15Z" /></svg>
